!!!COM: Anon.
!!!OTL: Relegentur Ab Area
!!!SCA: Folio 202'-203
!!!YOR: from 'Thirty-Five Conductus for Two and Three Voices', pp.11-15
!!!YOR: edited by Janet Knapp, Collegium Musicum No. 6, Yale University (1965)
!!!YOR: from the School of Notre Dame; circa 1170-1240
!!!YOO: Yale University
!!!YOY: 1965
**kern	**kern	**kern
*M6/8	*M6/8	*M6/8
=1	=1	=1
4.D	8d	4.A
.	8c	.
.	8B	.
4.r	4.A	4B
.	.	8c
=2	=2	=2
4.D	4.A	8d
.	.	8c
.	.	8B
4.E	4.r	4.A
=3	=3	=3
4.D	4.A	4.A
4.r	4B	4.G
.	8c	.
=4	=4	=4
4.D	8d	4.A
.	8c	.
.	8B	.
4.r	4.A	4.r
=5	=5	=5
4.C	4G	8c
.	.	8B
.	8F	8A
4.r	4.E	4.G
=6	=6	=6
4D	4.D	4.A
8E	.	.
4F	4C	4.r
8E	8r	.
=7	=7	=7
4.D	8A	4.A
.	8G	.
.	8F	.
4.r	4E	4.G
.	8G	.
=8	=8	=8
2.C	4F	8c
.	.	8B
.	8F	8A
.	4.E	4.G
=9	=9	=9
4.D	4.D	4.A
4.r	4.r	4.r
=10	=10	=10
4.D	4.A	8d
.	.	8c
.	.	8B
4.r	4G	4.A
.	8F	.
=11	=11	=11
4E	4.E	4.B
8F	.	.
4G	4.D	4.r
8F	.	.
=12	=12	=12
4.E	4.C	4.G
4.r	4.r	4A
.	.	8B
=13	=13	=13
2.D	4A	4.A
.	8G	.
.	4G	4G
.	8F	8A
=14	=14	=14
4.E	4.E	4.B
4.r	4.r	4.r
=15	=15	=15
4.E	4.A	4e
.	.	8e
4.r	4.G	4e
.	.	8d
=16	=16	=16
4F	4F	4.c
8G	8E	.
4A	4.D	4.d
8G	.	.
=17	=17	=17
4.F	4.C	4.c
4.E	4.r	4.r
=18	=18	=18
4.D	4.D	4.A
4.E	4.E	4.r
=19	=19	=19
4.C	4.F	8c
.	.	8B
.	.	8A
4.r	4.G	4.G
=20	=20	=20
4.G	4G	4.c
.	8A	.
4G	4.C	8c
.	.	8B
8A	.	8A
=21	=21	=21
4.C	8G	4.G
.	8F	.
.	8E	.
4.r	4.D	4.A
=22	=22	=22
4D	4.D	4.G
8E	.	.
4F	4.C	4.A
8E	.	.
=23	=23	=23
4.D	4.D	4.G
4.E	4.E	4.r
=24	=24	=24
4.C	8G	8c
.	8F	8B
.	8F	8A
4.C	4.E	4.G
=25	=25	=25
4.D	4.D	4.A
4.r	4.r	4.r
=26	=26	=26
4.A	4.F	4.c
4.B-	4.E	4d
.	.	8e
=27	=27	=27
4.A	2.F	4.d
4A	.	4d
8G	.	8c
=28	=28	=28
4F	4G	2.d
8E	8A	.
4.D	4A	.
.	8B	.
=29	=29	=29
2.C	16c	2.c
.	16B	.
.	16A	.
.	16G	.
.	8F	.
.	4.E	.
=30	=30	=30
4.D	4.D	4.d
4.E	4E	8c
.	.	8B
.	8D	8A
=31	=31	=31
4.F	4.C	4.c
4.r	4.r	4.r
=32	=32	=32
4.E	4.E	4.B
4.F	4.D	4c
.	.	8d
=33	=33	=33
8G	4.C	4.c
8F	.	.
8E	.	.
4.D	4.F	4c
.	.	8B
=34	=34	=34
4.C	4.G	4.G
4.D	4.A	4.F
=35	=35	=35
4.E	4B	4.E
.	8c	.
4E	16B	4E
.	16A	.
.	8G	.
8D	8F	8D
=36	=36	=36
2.C	2.E	2.G
=37	=37	=37
4.D	4.D	4.A
4.r	4.r	4.r
=38	=38	=38
2.A	4.A	16A
.	.	16G
.	.	8F
.	.	8E
.	4A	4.D
.	8G	.
=39	=39	=39
4.B-	2.F	2.F
4B-	.	.
8A	.	.
=40	=40	=40
2.G	16B-	2.G
.	16A	.
.	8G	.
.	8F	.
.	4.E	.
=41	=41	=41
4.d	4.D	4.A
4.r	4.r	4.r
=42	=42	=42
8c	4F	2.c
8c	.	.
8A	8G	.
4.F	8A	.
.	8A	.
.	8G	.
=43	=43	=43
4.G	4.G	4.d
4.G	8F	8c
.	8E	8B
.	8D	8A
=44	=44	=44
4.F	4.C	4.c
4.r	4.r	4.r
=45	=45	=45
4.B-	4.F	4.f
4.G	8G	4e
.	8F	.
.	8E	8c
=46	=46	=46
4.A	4.D	4.A
4.A	8F	4.r
.	8E	.
.	8D	.
=47	=47	=47
4G	4.C	4.c
8F	.	.
4.E	4.D	4.r
=48	=48	=48
4.F	4.C	4.c
4.r	4.r	4.d
=49	=49	=49
4.B-	4.F	4.f
4.G	8G	4e
.	8F	.
.	8E	8c
=50	=50	=50
4.A	4.D	4.A
4.A	8F	4G
.	8E	.
.	8D	8c
=51	=51	=51
4G	4.C	2.c
8F	.	.
4.E	4.D	.
=52	=52	=52
4.D	4.A	4.d
4.r	4A	4.r
.	8B	.
=53	=53	=53
4.C	4.c	4.c
4.D	4.A	4.d
=54	=54	=54
4.E	4.B	4.e
4.F	8c	4.c
.	8B	.
.	8A	.
=55	=55	=55
8G	4G	4.d
8F	.	.
8E	8G	.
4.D	4.A	4c
.	.	8d
=56	=56	=56
4.E	4.B	4.e
4.F	8c	4c
.	8B	.
.	8A	8d
=57	=57	=57
4.E	4.B	4.e
4.r	4.r	4.r
=58	=58	=58
4.G	4.c	4.c
4.A	4B	4.d
.	8A	.
=59	=59	=59
4.c	4.G	4.G
4.r	4G	4.r
.	8F	.
=60	=60	=60
4.d	4E	4.A
.	8D	.
4.c	4.G	4.c
=61	=61	=61
4.A	4.A	4.d
4.r	4.B	4e
.	.	8d
=62	=62	=62
4.F	4.c	4.c
4.G	4.r	4.r
=63	=63	=63
4.F	4c	4.f
.	8d	.
4.r	4c	4.r
.	8B	.
=64	=64	=64
4.A	4.A	4e
.	.	8d
4.G	4.r	4c
.	.	8B
=65	=65	=65
4.A	4.A	4.A
4.r	4.G	4.r
=66	=66	=66
4D	4.A	4.A
8E	.	.
4F	4.r	4.G
8E	.	.
=67	=67	=67
4.D	4d	4.A
.	8e	.
4.r	4d	4.r
.	8c	.
=68	=68	=68
4.E	4.B	4.B
4.F	4.A	4.r
=69	=69	=69
4.G	4.G	4.d
4.r	4.A	4e
.	.	8d
=70	=70	=70
4A	4.F	4.c
8B	.	.
4c	4.r	4.r
8B	.	.
=71	=71	=71
4.A	4A	4.e
.	8B	.
4.r	4c	4.d
.	8B	.
=72	=72	=72
4.A	4.A	4.e
4.r	4.G	4.r
=73	=73	=73
4B-	4.F	4.f
8A	.	.
4G	4.G	4.r
8G	.	.
=74	=74	=74
4A	4.E	4.e
8G	.	.
4F	4.F	4.r
8F	.	.
=75	=75	=75
4G	4.D	4.d
8F	.	.
4E	4E	4.r
8F	8D	.
=76	=76	=76
4.E	4.E	4e
.	.	8d
4.D	4.F	8c
.	.	8B
.	.	8A
=77	=77	=77
4.C	4.G	8c
.	.	8c
.	.	8B
4.r	4.r	4.G
=78	=78	=78
[2.C	16c	8G
.	16B	.
.	16A	8A
.	16G	.
.	16F	8B
.	16E	.
.	4.D	4.c
=79	=79	=79
2.C]	2.E	4.c
.	.	4.A
=80	=80	=80
4.D	4.D	4.A
4.r	4.r	4.r
=81	=81	=81
4.F	8c	4.f
.	8B-	.
.	8A	.
4.r	4.G	4.r
=82	=82	=82
4.F	4.c	4f
.	.	8e
4.G	4.B-	4d
.	.	8c
=83	=83	=83
4.A	4.A	4.A
4.D	4.r	4.d
=84	=84	=84
4.F	4c	4c
.	8d	8B-
4.G	4c	4A
.	8B-	8G
=85	=85	=85
4.A	4.A	4.A
4A	4A	4.r
8B-	8G	.
=86	=86	=86
4.c	4.F	4.f
4.B-	4.G	4f
.	.	8e
=87	=87	=87
4.A	4.A	4.e
4.r	4.B-	4.d
=88	=88	=88
4G	4c	4.c
8A	8A	.
4B-	4.B-	4.d
8A	.	.
=89	=89	=89
4.F	4.c	4.c
4.r	4.r	4.B-
=90	=90	=90
4.G	4d	4.G
.	8e	.
4.F	4f	4.A
.	8e	.
=91	=91	=91
4.G	4d	4.G
.	8c	.
4.r	4.B-	4.B-
=92	=92	=92
4.A	4.A	4.A
4A	4A	4.r
8G	8G	.
=93	=93	=93
4.c	4.F	4.c
4.d	4E	8B-
.	.	8A
.	8D	8G
=94	=94	=94
4.d	4.D	4.A
4.r	4.r	4.r
=95	=95	=95
2.c	2.F	4.c
.	.	4c
.	.	8B-
=96	=96	=96
4d	4G	4.G
8c	8F	.
4.B-	4.G	4.B-
=97	=97	=97
4.A	4.A	4.A
4.F	4.c	4.c
=98	=98	=98
2.G	4d	4d
.	8c	8e
.	4.B-	4f
.	.	8d
=99	=99	=99
4.A	4.A	4.A
4.r	4.r	4.r
=100	=100	=100
4.A	4A	4.d
.	8B	.
4.A	4c	4.c
.	8B	.
=101	=101	=101
4.A	4.d	4.d
4.r	4.G	4.r
=102	=102	=102
4c	4F	4f
8B-	8G	8d
4A	4.A	4e
8G	.	8d
=103	=103	=103
4F	4B-	4.f
8E	8G	.
4.D	4.A	4.d
=104	=104	=104
4.A	4D	4.d
.	8E	.
4.A	4F	4.c
.	8E	.
=105	=105	=105
4.A	4.D	4.d
4.r	4.r	4.r
=106	=106	=106
4c	4F	4.f
8B	8G	.
4A	4A	4.r
8G	8B	.
=107	=107	=107
4.A	4.A	4e
.	.	8d
4.F	4.c	4f
.	.	8e
=108	=108	=108
4.G	4d	4.d
.	8c	.
4.A	4.B	4.c
=109	=109	=109
4.A	4.A	4.A
4.r	4.r	4.r
=110	=110	=110
4c	4F	4f
8B	8E	8f
4A	4F	4f
8G	8G	8e
=111	=111	=111
4.A	4.D	4.d
4.F	4.F	4d
.	.	8e
=112	=112	=112
4.G	4.E	4.c
4.A	4.D	4.d
=113	=113	=113
4.D	4.A	4.d
4.r	4A	4.r
.	8B	.
=114	=114	=114
4.F	4c	4.f
.	8B	.
4.E	4A	4.r
.	8B	.
=115	=115	=115
4.F	4c	4c
.	8B	8d
4.r	4A	4e
.	8r	8c
=116	=116	=116
4G	4G	4.d
8A	8F	.
4G	4E	4.r
8F	8D	.
=117	=117	=117
4E	4.C	4.c
8D	.	.
4.D	4A	4.A
.	8G	.
=118	=118	=118
4.C	4F	4.c
.	8G	.
4.r	4G	4.r
.	8A	.
=119	=119	=119
[2.C	16c	8c
.	16B	.
.	16A	8c
.	16G	.
.	16F	8B
.	16E	.
.	4.D	4.A
=120	=120	=120
4.C]	4.E	4.c
[4.D	[4.D	4.c
=121	=121	=121
4.D;]	4.D;]	4.d;
4.r	4.r	4.r
==	==	==
*-	*-	*-
!!!ENC: David Huron
!!!YEC: Copyright 1987, David Huron
!!!EEV: 1.0
